!! 00025] TT[TB
!! Eigene Aufnahme
!!!OTL: Cai Cha mang
!!!ARE: Asia, China,Jiangxi, Jingdezhen
!! Ethnic Group: Han
!! IV, 247
!!!SCT: C0126
!!!YEM: Copyright 1995, estate of Helmut Schaffrath.
**kern
*ICvox
*Ivox
*M2/4
*k[b-e-]
*B-:
{8.bb-
16gg
4ff
=1
8.bb-
16gg
4ff
=2
8fff
8fff
8ccc
16ccc
16ddd
=3
4fff
8ddd
8fff
=4
2ccc}
=5
{8ccc
16ccc
16ddd
8ggg
8ggg
=6
4fff
4fff
=7
8ccc
16ccc
16ddd
8ggg
8ggg
=8
4fff
4fff}
=9
{8gg
16gg
16bb-
8ccc
8ddd
=10
4bb-
4bb-
=11
8gg
16gg
16bb-
8ccc
8ddd
=12
4bb-
4bb-}
=13
{8.ddd
16ggg
8fff
8fff
=14
8ddd
8ggg
4fff
=15
8fff
8ddd
4ccc
=16
4ccc
4ccc}
=17
{8gg
8ccc
4ccc
=18
8bb-
8gg
4ff
=19
4ff
8dd
8ff
=20
4bb-
8bb-
8gg
=21
2ff}
==
!!!AGN: Arbeislied, Cha ge Arbeit bei der TeepflÅcken
!! Sehr geringer Unterschied zwischen den beiden Typen: Cai ge ist
!!    einfach, deng ge theaterisiert und wird auch cai Cai diao genannt.
!!    Relativ typisch. Huang Bai am 28.4.87 (wieder erkaeltet)
!!    Glissandi. Vorspiel weggelassen.
!!!ONB: ESAC (Essen Associative Code) Database: CHINA_057
!!!AMT: simple duple
!!!AIN: vox
!!!EED: Helmut Schaffrath
!!!EEV: 1.0
*-
